dist/images/customer/purdue-bg.svg

<svg xmlns="http://www.w3.org/2000/svg" width="399.289" height="266.642"><g stroke="#E3AE24" stroke-linecap="round" stroke-linejoin="round" fill="none"><line stroke-width="1.961" stroke-dasharray="0,4.025" x1="83.642" y1="9.256" x2="83.642" y2="129.238"/><path stroke-width="1.961" d="M83.642 133.375m0-132.395"/><line stroke-width="1.961" stroke-dasharray="0,4.025" x1="-3.83" y1="24.679" x2="37.207" y2="137.426"/><path stroke-width="1.961" d="M38.621 141.314m-45.282-124.412"/><line stroke-width="1.961" stroke-dasharray="0,4.025" x1="221.423" y1="240.711" x2="339.582" y2="219.877"/><path stroke-width="1.961" d="M343.657 219.158m-130.385 22.99"/><line stroke-width="1.961" stroke-dasharray="0,4.025" x1="204.806" y1="195.053" x2="308.711" y2="135.062"/><path stroke-width="1.961" d="M312.297 132.992m-114.658 66.199"/><line stroke-width="1.961" stroke-dasharray="0,4.025" x1="173.573" y1="157.831" x2="250.696" y2="65.92"/><path stroke-width="1.961" d="M253.354 62.752m-85.1 101.418"/><line stroke-width="1.961" stroke-dasharray="0,4.025" x1="131.493" y1="133.537" x2="172.529" y2="20.791"/><path stroke-width="1.961" d="M173.945 16.904m-45.282 124.408"/><line stroke-width="3.268" stroke-dasharray="0,9.2" x1="41.08" y1="23.628" x2="59.143" y2="126.068"/><path stroke-width="3.268" d="M60.784 135.381m-22.989-130.379"/><line stroke-width="3.268" stroke-dasharray="0,9.2" x1="-38.91" y1="52.74" x2="13.1" y2="142.825"/><path stroke-width="3.268" d="M17.83 151.016m-66.196-114.654"/><line stroke-width="3.268" stroke-dasharray="0,9.2" x1="234.183" y1="265.008" x2="338.2" y2="265.008"/><path stroke-width="3.268" d="M347.655 265.008m-132.386 0"/><line stroke-width="3.268" stroke-dasharray="0,9.2" x1="225.103" y1="213.52" x2="322.85" y2="177.941"/><path stroke-width="3.268" d="M331.736 174.709m-124.405 45.279"/><line stroke-width="3.268" stroke-dasharray="0,9.2" x1="198.962" y1="168.24" x2="278.647" y2="101.377"/><path stroke-width="3.268" d="M285.889 95.301m-101.415 85.097"/><line stroke-width="3.268" stroke-dasharray="0,9.2" x1="158.911" y1="134.635" x2="210.92" y2="44.551"/><path stroke-width="3.268" d="M215.649 36.363m-66.193 114.651"/><line stroke-width="3.268" stroke-dasharray="0,9.2" x1="109.783" y1="116.754" x2="127.846" y2="14.315"/><path stroke-width="3.268" d="M129.486 5.003m-22.987 130.376"/></g></svg>

<?xml version="1.0" encoding="utf-8"?>
<!-- Generator: Adobe Illustrator 15.0.0, SVG Export Plug-In . SVG Version: 6.00 Build 0)  -->
<!DOCTYPE svg PUBLIC "-//W3C//DTD SVG 1.1//EN" "http://www.w3.org/Graphics/SVG/1.1/DTD/svg11.dtd">
<svg version="1.1" id="Layer_1" xmlns="http://www.w3.org/2000/svg" xmlns:xlink="http://www.w3.org/1999/xlink" x="0px" y="0px"
	 width="399.289px" height="266.642px" viewBox="0 0 399.289 266.642" enable-background="new 0 0 399.289 266.642"
	 xml:space="preserve">
<g>
	
		<line fill="none" stroke="#E3AE24" stroke-width="1.961" stroke-linecap="round" stroke-linejoin="round" stroke-dasharray="0,4.025" x1="83.642" y1="9.256" x2="83.642" y2="129.238"/>
	<path fill="none" stroke="#E3AE24" stroke-width="1.961" stroke-linecap="round" stroke-linejoin="round" d="M83.642,133.375
		L83.642,133.375 M83.642,0.98L83.642,0.98"/>
	
		<line fill="none" stroke="#E3AE24" stroke-width="1.961" stroke-linecap="round" stroke-linejoin="round" stroke-dasharray="0,4.025" x1="-3.83" y1="24.679" x2="37.207" y2="137.426"/>
	<path fill="none" stroke="#E3AE24" stroke-width="1.961" stroke-linecap="round" stroke-linejoin="round" d="M38.621,141.314
		L38.621,141.314 M-6.661,16.902L-6.661,16.902"/>
	
		<line fill="none" stroke="#E3AE24" stroke-width="1.961" stroke-linecap="round" stroke-linejoin="round" stroke-dasharray="0,4.025" x1="221.423" y1="240.711" x2="339.582" y2="219.877"/>
	<path fill="none" stroke="#E3AE24" stroke-width="1.961" stroke-linecap="round" stroke-linejoin="round" d="M343.657,219.158
		L343.657,219.158 M213.272,242.148L213.272,242.148"/>
	
		<line fill="none" stroke="#E3AE24" stroke-width="1.961" stroke-linecap="round" stroke-linejoin="round" stroke-dasharray="0,4.025" x1="204.806" y1="195.053" x2="308.711" y2="135.062"/>
	<path fill="none" stroke="#E3AE24" stroke-width="1.961" stroke-linecap="round" stroke-linejoin="round" d="M312.297,132.992
		L312.297,132.992 M197.639,199.191L197.639,199.191"/>
	
		<line fill="none" stroke="#E3AE24" stroke-width="1.961" stroke-linecap="round" stroke-linejoin="round" stroke-dasharray="0,4.025" x1="173.573" y1="157.831" x2="250.696" y2="65.92"/>
	<path fill="none" stroke="#E3AE24" stroke-width="1.961" stroke-linecap="round" stroke-linejoin="round" d="M253.354,62.752
		L253.354,62.752 M168.254,164.17L168.254,164.17"/>
	
		<line fill="none" stroke="#E3AE24" stroke-width="1.961" stroke-linecap="round" stroke-linejoin="round" stroke-dasharray="0,4.025" x1="131.493" y1="133.537" x2="172.529" y2="20.791"/>
	<path fill="none" stroke="#E3AE24" stroke-width="1.961" stroke-linecap="round" stroke-linejoin="round" d="M173.945,16.904
		L173.945,16.904 M128.663,141.312L128.663,141.312"/>
	
		<line fill="none" stroke="#E3AE24" stroke-width="3.268" stroke-linecap="round" stroke-linejoin="round" stroke-dasharray="0,9.2" x1="41.08" y1="23.628" x2="59.143" y2="126.068"/>
	<path fill="none" stroke="#E3AE24" stroke-width="3.268" stroke-linecap="round" stroke-linejoin="round" d="M60.784,135.381
		L60.784,135.381 M37.795,5.002L37.795,5.002"/>
	
		<line fill="none" stroke="#E3AE24" stroke-width="3.268" stroke-linecap="round" stroke-linejoin="round" stroke-dasharray="0,9.2" x1="-38.91" y1="52.74" x2="13.1" y2="142.825"/>
	<path fill="none" stroke="#E3AE24" stroke-width="3.268" stroke-linecap="round" stroke-linejoin="round" d="M17.83,151.016
		L17.83,151.016 M-48.366,36.362L-48.366,36.362"/>
	
		<line fill="none" stroke="#E3AE24" stroke-width="3.268" stroke-linecap="round" stroke-linejoin="round" stroke-dasharray="0,9.2" x1="234.183" y1="265.008" x2="338.2" y2="265.008"/>
	<path fill="none" stroke="#E3AE24" stroke-width="3.268" stroke-linecap="round" stroke-linejoin="round" d="M347.655,265.008
		L347.655,265.008 M215.269,265.008L215.269,265.008"/>
	
		<line fill="none" stroke="#E3AE24" stroke-width="3.268" stroke-linecap="round" stroke-linejoin="round" stroke-dasharray="0,9.2" x1="225.103" y1="213.52" x2="322.85" y2="177.941"/>
	<path fill="none" stroke="#E3AE24" stroke-width="3.268" stroke-linecap="round" stroke-linejoin="round" d="M331.736,174.709
		L331.736,174.709 M207.331,219.988L207.331,219.988"/>
	
		<line fill="none" stroke="#E3AE24" stroke-width="3.268" stroke-linecap="round" stroke-linejoin="round" stroke-dasharray="0,9.2" x1="198.962" y1="168.24" x2="278.647" y2="101.377"/>
	<path fill="none" stroke="#E3AE24" stroke-width="3.268" stroke-linecap="round" stroke-linejoin="round" d="M285.889,95.301
		L285.889,95.301 M184.474,180.398L184.474,180.398"/>
	
		<line fill="none" stroke="#E3AE24" stroke-width="3.268" stroke-linecap="round" stroke-linejoin="round" stroke-dasharray="0,9.2" x1="158.911" y1="134.635" x2="210.92" y2="44.551"/>
	<path fill="none" stroke="#E3AE24" stroke-width="3.268" stroke-linecap="round" stroke-linejoin="round" d="M215.649,36.363
		L215.649,36.363 M149.456,151.014L149.456,151.014"/>
	
		<line fill="none" stroke="#E3AE24" stroke-width="3.268" stroke-linecap="round" stroke-linejoin="round" stroke-dasharray="0,9.2" x1="109.783" y1="116.754" x2="127.846" y2="14.315"/>
	<path fill="none" stroke="#E3AE24" stroke-width="3.268" stroke-linecap="round" stroke-linejoin="round" d="M129.486,5.003
		L129.486,5.003 M106.499,135.379L106.499,135.379"/>
</g>
</svg>
